tools/download-figma-icons/icons/outlined-large/surface-66.svg

<svg width="64" height="64" viewBox="0 0 64 64" fill="none" xmlns="http://www.w3.org/2000/svg">
<path opacity="0.2" d="M32.093 50.0005C31.848 50.0005 31.603 49.9405 31.381 49.8205L0.788 33.3205C0.302 33.0595 0 32.5505 0 31.9985C0 31.4465 0.305 30.9385 0.791 30.6785L16.181 22.4285L31.377 14.1825C31.824 13.9405 32.361 13.9405 32.809 14.1825L63.216 30.6825C63.699 30.9455 64 31.4515 64 32.0005C64 32.5495 63.699 33.0565 63.216 33.3185L32.809 49.8185C32.585 49.9395 32.339 50.0005 32.093 50.0005ZM4.667 32.0045L32.091 46.7955L59.355 32.0005L32.093 17.2075L17.606 25.0685L4.668 32.0045H4.667Z" fill="black"/>
<path d="M32.068 50.0005C31.823 50.0005 31.578 49.9405 31.356 49.8205L8.64402 37.5705C8.15802 37.3075 7.85502 36.7995 7.85602 36.2485C7.85702 35.6975 8.16102 35.1885 8.64702 34.9285L20.073 28.8035L31.352 22.6825C31.799 22.4405 32.336 22.4405 32.784 22.6825L55.359 34.9325C55.842 35.1955 56.143 35.7015 56.143 36.2505C56.143 36.7995 55.842 37.3065 55.359 37.5685L32.784 49.8185C32.56 49.9395 32.314 50.0005 32.068 50.0005ZM12.523 36.2545L32.066 46.7955L51.498 36.2505L32.068 25.7075L21.498 31.4435L12.523 36.2545Z" fill="black"/>
</svg>

<svg xmlns="http://www.w3.org/2000/svg" width="64" height="64" fill="none" viewBox="0 0 64 64"><path fill="currentColor" d="M32.093 50c-.245 0-.49-.06-.712-.18L.788 33.32a1.5 1.5 0 0 1 .003-2.642l15.39-8.25 15.196-8.246a1.5 1.5 0 0 1 1.432 0l30.407 16.5a1.502 1.502 0 0 1 0 2.637l-30.407 16.5c-.224.12-.47.181-.716.181M4.667 32.005l27.424 14.79 27.264-14.794-27.262-14.793-14.487 7.86z" opacity=".2"/><path fill="currentColor" d="M32.068 50c-.245 0-.49-.06-.712-.18L8.644 37.57a1.502 1.502 0 0 1 .003-2.642l11.426-6.124 11.279-6.121a1.5 1.5 0 0 1 1.432 0l22.575 12.25a1.502 1.502 0 0 1 0 2.636l-22.575 12.25c-.224.12-.47.181-.716.181M12.523 36.256l19.543 10.54 19.432-10.544-19.43-10.543-10.57 5.736z"/></svg>
